symbols/web/roller_skating/materialsymbolsrounded/roller_skating_wght500gradN25fill1_48px.svg

<svg xmlns="http://www.w3.org/2000/svg" height="48" width="48"><path d="M11.05 31.55q-1.35 0-2.275-.95-.925-.95-.925-2.35V5.2q0-1.35.975-2.325Q9.8 1.9 11.15 1.9H21q1.4 0 2.35.975.95.975.95 2.325v3.3h-5.6q-.3 0-.525.225-.225.225-.225.525 0 .25.225.475.225.225.525.225h5.6v1.2q0 .4.15 1.25H18.7q-.3 0-.525.225-.225.225-.225.525 0 .3.225.5t.525.2h6.4q.75 1.2 1.875 1.975Q28.1 16.6 29.4 17l5.25 1.45q2.5.75 4.025 2.775Q40.2 23.25 40.2 25.85v2.4q0 1.4-.9 2.35-.9.95-2.2.95ZM9.2 46.35q-2.25 0-3.9-1.65t-1.65-3.95q0-2.3 1.65-3.925T9.25 35.2q2.3 0 3.925 1.625T14.8 40.8q0 2.25-1.625 3.9T9.2 46.35Zm29.6 0q-2.3 0-3.95-1.65-1.65-1.65-1.65-3.95 0-2.3 1.65-3.925T38.8 35.2q2.3 0 3.925 1.625T44.35 40.8q0 2.25-1.625 3.9T38.8 46.35Zm-14.8 0q-2.3 0-3.925-1.65t-1.625-3.95q0-2.3 1.625-3.925T24.05 35.2q2.3 0 3.925 1.625T29.6 40.8q0 2.25-1.625 3.9T24 46.35Z"/></svg>

<svg xmlns="http://www.w3.org/2000/svg" height="48" width="48"><path d="M11.05 31.55Q9.7 31.55 8.775 30.6Q7.85 29.65 7.85 28.25V5.2Q7.85 3.85 8.825 2.875Q9.8 1.9 11.15 1.9H21Q22.4 1.9 23.35 2.875Q24.3 3.85 24.3 5.2V8.5H18.7Q18.4 8.5 18.175 8.725Q17.95 8.95 17.95 9.25Q17.95 9.5 18.175 9.725Q18.4 9.95 18.7 9.95H24.3V11.15Q24.3 11.55 24.45 12.4H18.7Q18.4 12.4 18.175 12.625Q17.95 12.85 17.95 13.15Q17.95 13.45 18.175 13.65Q18.4 13.85 18.7 13.85H25.1Q25.85 15.05 26.975 15.825Q28.1 16.6 29.4 17L34.65 18.45Q37.15 19.2 38.675 21.225Q40.2 23.25 40.2 25.85V28.25Q40.2 29.65 39.3 30.6Q38.4 31.55 37.1 31.55ZM9.2 46.35Q6.95 46.35 5.3 44.7Q3.65 43.05 3.65 40.75Q3.65 38.45 5.3 36.825Q6.95 35.2 9.25 35.2Q11.55 35.2 13.175 36.825Q14.8 38.45 14.8 40.8Q14.8 43.05 13.175 44.7Q11.55 46.35 9.2 46.35ZM38.8 46.35Q36.5 46.35 34.85 44.7Q33.2 43.05 33.2 40.75Q33.2 38.45 34.85 36.825Q36.5 35.2 38.8 35.2Q41.1 35.2 42.725 36.825Q44.35 38.45 44.35 40.8Q44.35 43.05 42.725 44.7Q41.1 46.35 38.8 46.35ZM24 46.35Q21.7 46.35 20.075 44.7Q18.45 43.05 18.45 40.75Q18.45 38.45 20.075 36.825Q21.7 35.2 24.05 35.2Q26.35 35.2 27.975 36.825Q29.6 38.45 29.6 40.8Q29.6 43.05 27.975 44.7Q26.35 46.35 24 46.35Z"/></svg>
